app/assets/images/slack.svg

<svg width="623" height="255" viewBox="0 0 623 255" fill="none" xmlns="http://www.w3.org/2000/svg">
<path d="M221.5 161.5L227.7 147.1C234.4 152.1 243.3 154.7 252.1 154.7C258.6 154.7 262.7 152.2 262.7 148.4C262.6 137.8 223.8 146.1 223.5 119.5C223.4 106 235.4 95.6001 252.4 95.6001C262.5 95.6001 272.6 98.1001 279.8 103.8L274 118.5C267.4 114.3 259.2 111.3 251.4 111.3C246.1 111.3 242.6 113.8 242.6 117C242.7 127.4 281.8 121.7 282.2 147.1C282.2 160.9 270.5 170.6 253.7 170.6C241.4 170.6 230.1 167.7 221.5 161.5Z" fill="white"/>
<path d="M459.4 141.9C456.3 147.3 450.5 151 443.8 151C433.9 151 425.9 143 425.9 133.1C425.9 123.2 433.9 115.2 443.8 115.2C450.5 115.2 456.3 118.9 459.4 124.3L476.5 114.8C470.1 103.4 457.8 95.6001 443.8 95.6001C423.1 95.6001 406.3 112.4 406.3 133.1C406.3 153.8 423.1 170.6 443.8 170.6C457.9 170.6 470.1 162.9 476.5 151.4L459.4 141.9Z" fill="white"/>
<path d="M312.2 64.5H290.8V169.2H312.2V64.5Z" fill="white"/>
<path d="M484.9 64.5V169.2H506.3V137.8L531.7 169.2H559.1L526.8 131.9L556.7 97.1H530.5L506.3 126V64.5H484.9Z" fill="white"/>
<path d="M375.8 142.1C372.7 147.2 366.3 151 359.1 151C349.2 151 341.2 143 341.2 133.1C341.2 123.2 349.2 115.2 359.1 115.2C366.3 115.2 372.7 119.2 375.8 124.4V142.1ZM375.8 97.1001V105.6C372.3 99.7001 363.6 95.6001 354.5 95.6001C335.7 95.6001 320.9 112.2 320.9 133C320.9 153.8 335.7 170.6 354.5 170.6C363.6 170.6 372.3 166.5 375.8 160.6V169.1H397.2V97.1001H375.8Z" fill="white"/>
<path d="M89.2003 142C89.2003 149.3 83.3003 155.2 76.0003 155.2C68.7003 155.2 62.8003 149.3 62.8003 142C62.8003 134.7 68.7003 128.8 76.0003 128.8H89.2003V142Z" fill="#E01E5A"/>
<path d="M95.8003 142C95.8003 134.7 101.7 128.8 109 128.8C116.3 128.8 122.2 134.7 122.2 142V175C122.2 182.3 116.3 188.2 109 188.2C101.7 188.2 95.8003 182.3 95.8003 175V142Z" fill="#E01E5A"/>
<path d="M109 89.0001C101.7 89.0001 95.8003 83.1001 95.8003 75.8001C95.8003 68.5001 101.7 62.6001 109 62.6001C116.3 62.6001 122.2 68.5001 122.2 75.8001V89.0001H109Z" fill="#36C5F0"/>
<path d="M109 95.7002C116.3 95.7002 122.2 101.6 122.2 108.9C122.2 116.2 116.3 122.1 109 122.1H75.9002C68.6002 122.1 62.7002 116.2 62.7002 108.9C62.7002 101.6 68.6002 95.7002 75.9002 95.7002H109Z" fill="#36C5F0"/>
<path d="M161.9 108.9C161.9 101.6 167.8 95.7002 175.1 95.7002C182.4 95.7002 188.3 101.6 188.3 108.9C188.3 116.2 182.4 122.1 175.1 122.1H161.9V108.9Z" fill="#2EB67D"/>
<path d="M155.3 108.9C155.3 116.2 149.4 122.1 142.1 122.1C134.8 122.1 128.9 116.2 128.9 108.9V75.8001C128.9 68.5001 134.8 62.6001 142.1 62.6001C149.4 62.6001 155.3 68.5001 155.3 75.8001V108.9Z" fill="#2EB67D"/>
<path d="M142.1 161.8C149.4 161.8 155.3 167.7 155.3 175C155.3 182.3 149.4 188.2 142.1 188.2C134.8 188.2 128.9 182.3 128.9 175V161.8H142.1Z" fill="#ECB22E"/>
<path d="M142.1 155.2C134.8 155.2 128.9 149.3 128.9 142C128.9 134.7 134.8 128.8 142.1 128.8H175.2C182.5 128.8 188.4 134.7 188.4 142C188.4 149.3 182.5 155.2 175.2 155.2H142.1Z" fill="#ECB22E"/>
</svg>

<?xml version="1.0" encoding="utf-8"?>
<!-- Generator: Adobe Illustrator 23.0.1, SVG Export Plug-In . SVG Version: 6.00 Build 0)  -->
<svg version="1.1" id="Layer_1" xmlns="http://www.w3.org/2000/svg" xmlns:xlink="http://www.w3.org/1999/xlink" x="0px" y="0px"
	 viewBox="0 0 622.3 254.4" style="enable-background:new 0 0 622.3 254.4;" xml:space="preserve">
<style type="text/css">
	.st0{fill:#E01E5A;}
	.st1{fill:#36C5F0;}
	.st2{fill:#2EB67D;}
	.st3{fill:#ECB22E;}
</style>
<g>
	<g>
		<path d="M221.5,161.5l6.2-14.4c6.7,5,15.6,7.6,24.4,7.6c6.5,0,10.6-2.5,10.6-6.3c-0.1-10.6-38.9-2.3-39.2-28.9
			c-0.1-13.5,11.9-23.9,28.9-23.9c10.1,0,20.2,2.5,27.4,8.2l-5.8,14.7c-6.6-4.2-14.8-7.2-22.6-7.2c-5.3,0-8.8,2.5-8.8,5.7
			c0.1,10.4,39.2,4.7,39.6,30.1c0,13.8-11.7,23.5-28.5,23.5C241.4,170.6,230.1,167.7,221.5,161.5"/>
		<path d="M459.4,141.9c-3.1,5.4-8.9,9.1-15.6,9.1c-9.9,0-17.9-8-17.9-17.9s8-17.9,17.9-17.9c6.7,0,12.5,3.7,15.6,9.1l17.1-9.5
			c-6.4-11.4-18.7-19.2-32.7-19.2c-20.7,0-37.5,16.8-37.5,37.5c0,20.7,16.8,37.5,37.5,37.5c14.1,0,26.3-7.7,32.7-19.2L459.4,141.9z"
			/>
		<rect x="290.8" y="64.5" width="21.4" height="104.7"/>
		<polygon points="484.9,64.5 484.9,169.2 506.3,169.2 506.3,137.8 531.7,169.2 559.1,169.2 526.8,131.9 556.7,97.1 530.5,97.1 
			506.3,126 506.3,64.5 		"/>
		<path d="M375.8,142.1c-3.1,5.1-9.5,8.9-16.7,8.9c-9.9,0-17.9-8-17.9-17.9s8-17.9,17.9-17.9c7.2,0,13.6,4,16.7,9.2V142.1z
			 M375.8,97.1v8.5c-3.5-5.9-12.2-10-21.3-10c-18.8,0-33.6,16.6-33.6,37.4c0,20.8,14.8,37.6,33.6,37.6c9.1,0,17.8-4.1,21.3-10v8.5
			h21.4v-72H375.8z"/>
	</g>
	<g>
		<g>
			<path class="st0" d="M89.2,142c0,7.3-5.9,13.2-13.2,13.2s-13.2-5.9-13.2-13.2s5.9-13.2,13.2-13.2h13.2V142z"/>
			<path class="st0" d="M95.8,142c0-7.3,5.9-13.2,13.2-13.2s13.2,5.9,13.2,13.2V175c0,7.3-5.9,13.2-13.2,13.2s-13.2-5.9-13.2-13.2
				V142z"/>
		</g>
		<g>
			<path class="st1" d="M109,89c-7.3,0-13.2-5.9-13.2-13.2c0-7.3,5.9-13.2,13.2-13.2s13.2,5.9,13.2,13.2V89H109z"/>
			<path class="st1" d="M109,95.7c7.3,0,13.2,5.9,13.2,13.2c0,7.3-5.9,13.2-13.2,13.2H75.9c-7.3,0-13.2-5.9-13.2-13.2
				c0-7.3,5.9-13.2,13.2-13.2H109z"/>
		</g>
		<g>
			<path class="st2" d="M161.9,108.9c0-7.3,5.9-13.2,13.2-13.2s13.2,5.9,13.2,13.2c0,7.3-5.9,13.2-13.2,13.2h-13.2V108.9z"/>
			<path class="st2" d="M155.3,108.9c0,7.3-5.9,13.2-13.2,13.2s-13.2-5.9-13.2-13.2V75.8c0-7.3,5.9-13.2,13.2-13.2
				s13.2,5.9,13.2,13.2V108.9z"/>
		</g>
		<g>
			<path class="st3" d="M142.1,161.8c7.3,0,13.2,5.9,13.2,13.2c0,7.3-5.9,13.2-13.2,13.2s-13.2-5.9-13.2-13.2v-13.2H142.1z"/>
			<path class="st3" d="M142.1,155.2c-7.3,0-13.2-5.9-13.2-13.2s5.9-13.2,13.2-13.2h33.1c7.3,0,13.2,5.9,13.2,13.2
				s-5.9,13.2-13.2,13.2H142.1z"/>
		</g>
	</g>
</g>
</svg>
